X:220
T: Conlon's Dream
S: "Treoir"
Z: B.Black
M: 4/4
L: 1/8
R: reel
K: G
GABG FGAF |EBBA BGEF |GABG FGBd |dBAG FDDF |
G2 BG F2 AF |EBBA BGEF |GABG FGAc |dBAG FD D2 ||
(3fgf ec dBAF |EBBA BGEg |(3fgf ec dBAd |\
(3Bcd AG FDDg |
fdec dBAF |EBBA BGEg |(3fgf ec dBAG |BGAG FD D2 ||
